X:69
T:Miss Monaghan's
T:Miss Monahan's
M:4/4
L:1/8
R:reel
K:D
D2FD FA~A2|BcBA FABc|d2dB ABde|fede fe~e2|
D2FD FA~A2|BcBA FABc|d2dB ABdB|AFEG FD~D2:|
|:faab afdf|gefd edBc|d2dB ABde|fede fe~e2|
faab afdf|gefd edBc|d2dB ABdB|AFEG FD~D2:|
